X: 433
T: Melodica Bulgar
T: Bender's Bulgar
C: Brian Bender (2005)
M: C
L: 1/8
K: Dphr^F
"^A"|:"D"D>F Ad cBAG | "Cm"(3FGA (3GFE "D"D3 D |  "D"FG FG AB AG | "D"A4 d4 
    | "D"D>F Ad cBAG | "Cm"(3FGA (3GFE  DC- C2 | "(D)"DE FG "Cm"(3AGF (3GFE | "D"D6 z2 :|
"^B"|:"D"dd cB AB cd | "(Gm)"(3BAG "D"AF "Gm"G4 | "Gm"B3 c dd cB | "D"dA- A4 z2 
    | "D"dd cB AB cd | "(Gm)"(3BAG "D"AF "Gm"G4 | "Cm"C=B, CD EG FE | "D"D6 z2 :|
"^C"|:"Gm"(3GDG (3BGB dB AG | "Cm"c>G cd ed cB | "D"AB ^cd cB AG | "Gm"^cd- d4 D2 
    | "Gm"(3GDG (3BGB dB AG | "Cm"c>G cd ed cB | "D"AB ^cd cB AB | "Gm"G6 z2 :|



